common/images/mv-date.svg

<svg xmlns="http://www.w3.org/2000/svg" width="979" height="171.06" viewBox="0 0 979 171.06">
  <g id="グループ_307" data-name="グループ 307" transform="translate(-470.5 -1343)">
    <path id="パス_551" data-name="パス 551" d="M-.12-37.02a6.834,6.834,0,0,0-5.19,1.98A7.584,7.584,0,0,0-7.2-29.58q0,4.14,1.86,6.24a6.608,6.608,0,0,0,5.22,2.1A6.538,6.538,0,0,0,5.07-23.4a9.1,9.1,0,0,0,1.89-6.18,7.423,7.423,0,0,0-1.98-5.4A6.8,6.8,0,0,0-.12-37.02ZM-2.22-14.4q-7.14,0-10.95-3.84T-16.98-29.4q0-6.9,4.53-10.95T-.12-44.4q8.1,0,12.51,4.86T16.8-25.2Q16.8.6-2.82.6A43.046,43.046,0,0,1-9.54.06a3.72,3.72,0,0,1-2.37-1.41,4.174,4.174,0,0,1-.93-2.67V-5.1a2.37,2.37,0,0,1,1.02-2.01,2.643,2.643,0,0,1,2.28-.45,28.714,28.714,0,0,0,6.36.78A9.754,9.754,0,0,0,3.99-9.36q2.61-2.58,2.85-7.56a.053.053,0,0,0-.06-.06H6.72Q3.36-14.4-2.22-14.4Z" transform="translate(580.5 1420.06)" fill="#000b4d"/>
    <path id="パス_552" data-name="パス 552" d="M-.12-37.02a6.834,6.834,0,0,0-5.19,1.98A7.584,7.584,0,0,0-7.2-29.58q0,4.14,1.86,6.24a6.608,6.608,0,0,0,5.22,2.1A6.538,6.538,0,0,0,5.07-23.4a9.1,9.1,0,0,0,1.89-6.18,7.423,7.423,0,0,0-1.98-5.4A6.8,6.8,0,0,0-.12-37.02ZM-2.22-14.4q-7.14,0-10.95-3.84T-16.98-29.4q0-6.9,4.53-10.95T-.12-44.4q8.1,0,12.51,4.86T16.8-25.2Q16.8.6-2.82.6A43.046,43.046,0,0,1-9.54.06a3.72,3.72,0,0,1-2.37-1.41,4.174,4.174,0,0,1-.93-2.67V-5.1a2.37,2.37,0,0,1,1.02-2.01,2.643,2.643,0,0,1,2.28-.45,28.714,28.714,0,0,0,6.36.78A9.754,9.754,0,0,0,3.99-9.36q2.61-2.58,2.85-7.56a.053.053,0,0,0-.06-.06H6.72Q3.36-14.4-2.22-14.4Z" transform="translate(1086 1420.06)" fill="#000b4d"/>
    <path id="パス_549" data-name="パス 549" d="M-48.672-45.448a2.647,2.647,0,0,1-3.068.312,2.824,2.824,0,0,1-1.612-2.7v-7.592a10.914,10.914,0,0,1,4.784-9.36l10.5-7.7A17.645,17.645,0,0,1-27.352-75.92H-20.8a5.692,5.692,0,0,1,4.16,1.768,5.692,5.692,0,0,1,1.768,4.16V-5.928a5.692,5.692,0,0,1-1.768,4.16A5.692,5.692,0,0,1-20.8,0h-6.552a5.692,5.692,0,0,1-4.16-1.768,5.692,5.692,0,0,1-1.768-4.16V-56.472h-.208ZM12.688-28.6v.1a.092.092,0,0,0,.1.1h17.16q.936,0,.936-.832V-54.392a.092.092,0,0,0-.1-.1q-.208,0-.208.1ZM2.912-14.56A5.524,5.524,0,0,1-1.2-16.328a5.778,5.778,0,0,1-1.716-4.16v-1.976A18.244,18.244,0,0,1,.52-33.176l26.936-37.96a10.818,10.818,0,0,1,9.256-4.784h5.2a5.524,5.524,0,0,1,4.108,1.768,5.778,5.778,0,0,1,1.716,4.16v40.768q0,.832.936.832h4.16a5.692,5.692,0,0,1,4.16,1.768,5.692,5.692,0,0,1,1.768,4.16v1.976a5.692,5.692,0,0,1-1.768,4.16,5.692,5.692,0,0,1-4.16,1.768h-4.16a.827.827,0,0,0-.936.936v7.7a5.778,5.778,0,0,1-1.716,4.16A5.524,5.524,0,0,1,41.912,0h-5.2A5.524,5.524,0,0,1,32.6-1.768a5.778,5.778,0,0,1-1.716-4.16v-7.7a.827.827,0,0,0-.936-.936Z" transform="translate(716 1488)" fill="#000b4d"/>
    <path id="パス_550" data-name="パス 550" d="M-48.672-45.448a2.647,2.647,0,0,1-3.068.312,2.824,2.824,0,0,1-1.612-2.7v-7.592a10.914,10.914,0,0,1,4.784-9.36l10.5-7.7A17.645,17.645,0,0,1-27.352-75.92H-20.8a5.692,5.692,0,0,1,4.16,1.768,5.692,5.692,0,0,1,1.768,4.16V-5.928a5.692,5.692,0,0,1-1.768,4.16A5.692,5.692,0,0,1-20.8,0h-6.552a5.692,5.692,0,0,1-4.16-1.768,5.692,5.692,0,0,1-1.768-4.16V-56.472h-.208ZM29.848-39.1A11.61,11.61,0,0,0,20.9-35.516q-3.328,3.588-3.328,9.828,0,6.552,3.38,10.244a11.484,11.484,0,0,0,8.892,3.692q5.824,0,9.048-3.588T42.12-25.688q0-6.448-3.276-9.932T29.848-39.1Zm0,40.144q-14.04,0-21.684-8.58T.52-33.28q0-21.84,8.84-32.76T34.528-76.96a63.318,63.318,0,0,1,10.608.832,6.376,6.376,0,0,1,4.108,2.5,7.446,7.446,0,0,1,1.612,4.68v1.872a4.012,4.012,0,0,1-1.716,3.432,4.542,4.542,0,0,1-3.9.728,45.989,45.989,0,0,0-10.088-1.248,15.965,15.965,0,0,0-11.8,4.524q-4.524,4.524-5.564,13.052a.092.092,0,0,0,.1.1h.1q5.824-4.472,15.5-4.472,12.272,0,18.928,6.448T59.072-26q0,12.688-7.8,19.864T29.848,1.04Z" transform="translate(1221.5 1488)" fill="#000b4d"/>
    <path id="パス_553" data-name="パス 553" d="M-16.426-31.39a2.354,2.354,0,0,1,1.72.731,2.354,2.354,0,0,1,.731,1.72v1.978a2.354,2.354,0,0,1-.731,1.72,2.354,2.354,0,0,1-1.72.731H-25.2q-.387,0-.387.344v5.289a.342.342,0,0,0,.387.387h7.912a2.354,2.354,0,0,1,1.72.731,2.354,2.354,0,0,1,.731,1.72v1.548a2.354,2.354,0,0,1-.731,1.72,2.354,2.354,0,0,1-1.72.731H-25.2a.342.342,0,0,0-.387.387v9.2a2.354,2.354,0,0,1-.731,1.72A2.354,2.354,0,0,1-28.036,0h-3.7a2.354,2.354,0,0,1-1.72-.731,2.354,2.354,0,0,1-.731-1.72V-28.939a2.354,2.354,0,0,1,.731-1.72,2.354,2.354,0,0,1,1.72-.731ZM4.128-17.2A5.116,5.116,0,0,0,7.59-18.3a3.745,3.745,0,0,0,1.269-2.989q0-4.085-4.73-4.085a14.034,14.034,0,0,0-1.978.129.442.442,0,0,0-.387.473v7.181a.342.342,0,0,0,.387.387ZM15.222-8.6,17.5-2.279a1.616,1.616,0,0,1-.215,1.57A1.659,1.659,0,0,1,15.867,0H11.954A3.4,3.4,0,0,1,9.933-.645a3.071,3.071,0,0,1-1.2-1.677L6.837-8.17a4.713,4.713,0,0,0-1.2-2.15A2.818,2.818,0,0,0,3.7-10.965H2.15a.342.342,0,0,0-.387.387v8.127a2.354,2.354,0,0,1-.731,1.72A2.354,2.354,0,0,1-.688,0H-4.171a2.354,2.354,0,0,1-1.72-.731,2.354,2.354,0,0,1-.731-1.72V-28.724a2.764,2.764,0,0,1,.667-1.828,2.394,2.394,0,0,1,1.7-.881q4.214-.387,8.815-.387,12.9,0,12.9,9.675A8.492,8.492,0,0,1,15.8-17.114,9.068,9.068,0,0,1,11.481-13.8a.038.038,0,0,0-.043.043q0,.086.043.086a6.829,6.829,0,0,1,2.128,1.849A12.882,12.882,0,0,1,15.222-8.6ZM31.3-31.39a2.354,2.354,0,0,1,1.72.731,2.354,2.354,0,0,1,.731,1.72V-2.451a2.354,2.354,0,0,1-.731,1.72A2.354,2.354,0,0,1,31.3,0H26.746a2.354,2.354,0,0,1-1.72-.731,2.354,2.354,0,0,1-.731-1.72V-28.939a2.354,2.354,0,0,1,.731-1.72,2.354,2.354,0,0,1,1.72-.731Z" transform="translate(797 1450) rotate(90)" fill="#000b4d"/>
    <path id="パス_554" data-name="パス 554" d="M-28.741-18.86q5.74,1.681,7.995,4.018A8.6,8.6,0,0,1-18.491-8.61q0,9.02-11.685,9.02A17.856,17.856,0,0,1-36.941-.82a2.962,2.962,0,0,1-1.5-1.312,3.978,3.978,0,0,1-.553-2.05V-6.273a1.227,1.227,0,0,1,.656-1.148,1.4,1.4,0,0,1,1.353-.041,14.994,14.994,0,0,0,6.4,1.517q3.69,0,3.69-2.46a2.489,2.489,0,0,0-.574-1.763,5.025,5.025,0,0,0-2.091-1.107q-5.453-1.681-7.851-4.2a8.721,8.721,0,0,1-2.4-6.253,7.622,7.622,0,0,1,2.891-6.314q2.89-2.3,8.384-2.3a26.047,26.047,0,0,1,7.011.861,2.9,2.9,0,0,1,1.6,1.169,3.329,3.329,0,0,1,.615,1.948v2.009a1.492,1.492,0,0,1-.677,1.292,1.572,1.572,0,0,1-1.5.184,21.628,21.628,0,0,0-6.642-1.189q-3.362,0-3.362,2.337Q-31.488-19.68-28.741-18.86ZM7.093-29.93a2.244,2.244,0,0,1,1.64.7,2.244,2.244,0,0,1,.7,1.64V-11.07q0,5.74-3.034,8.61T-2.46.41q-5.822,0-8.856-2.87t-3.034-8.61V-27.593a2.244,2.244,0,0,1,.7-1.64,2.244,2.244,0,0,1,1.64-.7H-8.4a2.244,2.244,0,0,1,1.64.7,2.244,2.244,0,0,1,.7,1.64v17.138a5.033,5.033,0,0,0,.861,3.342,3.629,3.629,0,0,0,2.829.964A3.629,3.629,0,0,0,.451-7.114a5.033,5.033,0,0,0,.861-3.342V-27.593a2.244,2.244,0,0,1,.7-1.64,2.244,2.244,0,0,1,1.64-.7Zm29.356,0a2.244,2.244,0,0,1,1.64.7,2.244,2.244,0,0,1,.7,1.64V-2.337a2.244,2.244,0,0,1-.7,1.64,2.244,2.244,0,0,1-1.64.7H33.333a3.484,3.484,0,0,1-3.362-2.091L22.878-16.359a.036.036,0,0,0-.041-.041.036.036,0,0,0-.041.041V-2.337A2.244,2.244,0,0,1,22.1-.7a2.244,2.244,0,0,1-1.64.7H17.343A2.244,2.244,0,0,1,15.7-.7a2.244,2.244,0,0,1-.7-1.64V-27.593a2.244,2.244,0,0,1,.7-1.64,2.244,2.244,0,0,1,1.64-.7h3.116a3.484,3.484,0,0,1,3.362,2.091l7.093,14.268a.036.036,0,0,0,.041.041A.036.036,0,0,0,31-13.571V-27.593a2.244,2.244,0,0,1,.7-1.64,2.244,2.244,0,0,1,1.64-.7Z" transform="translate(1298.5 1449) rotate(90)" fill="#000b4d"/>
    <path id="パス_555" data-name="パス 555" d="M67,0,0,88.44" transform="translate(600.5 1369.06)" fill="none" stroke="#000b4d" stroke-linecap="round" stroke-width="6"/>
    <path id="パス_556" data-name="パス 556" d="M67,0,0,88.44" transform="translate(1106 1369.06)" fill="none" stroke="#000b4d" stroke-linecap="round" stroke-width="6"/>
    <path id="パス_557" data-name="パス 557" d="M3127.337-203.27H3057v-4.957h58.89V-221l25.5,17.731Z" transform="translate(-2139.196 1651.269)" fill="#000b4d"/>
    <path id="パス_559" data-name="パス 559" d="M0,0H975" transform="translate(472.5 1345)" fill="none" stroke="#000b4d" stroke-linecap="round" stroke-width="4"/>
    <path id="パス_558" data-name="パス 558" d="M0,0H975" transform="translate(472.5 1512.06)" fill="none" stroke="#000b4d" stroke-linecap="round" stroke-width="4"/>
  </g>
</svg>

<?xml version="1.0" encoding="UTF-8" standalone="no"?>
<!DOCTYPE svg PUBLIC "-//W3C//DTD SVG 1.1//EN" "http://www.w3.org/Graphics/SVG/1.1/DTD/svg11.dtd">
<svg width="100%" height="100%" viewBox="0 0 979 172" version="1.1" xmlns="http://www.w3.org/2000/svg" xmlns:xlink="http://www.w3.org/1999/xlink" xml:space="preserve" xmlns:serif="http://www.serif.com/" style="fill-rule:evenodd;clip-rule:evenodd;stroke-linecap:round;">
    <g id="グループ_307" transform="matrix(1,0,0,1,-470.5,-1343)">
        <g id="パス_551" transform="matrix(1,0,0,1,580.5,1420.06)">
            <path d="M-0.12,-37.02C-2.051,-37.125 -3.939,-36.404 -5.31,-35.04C-6.635,-33.541 -7.315,-31.577 -7.2,-29.58C-7.2,-26.82 -6.58,-24.74 -5.34,-23.34C-4.001,-21.898 -2.085,-21.127 -0.12,-21.24C1.846,-21.142 3.754,-21.936 5.07,-23.4C6.435,-25.159 7.107,-27.359 6.96,-29.58C7.052,-31.572 6.338,-33.52 4.98,-34.98C3.643,-36.346 1.79,-37.087 -0.12,-37.02ZM-2.22,-14.4C-6.98,-14.4 -10.63,-15.68 -13.17,-18.24C-15.71,-20.8 -16.98,-24.52 -16.98,-29.4C-16.98,-34 -15.47,-37.65 -12.45,-40.35C-9.43,-43.05 -5.32,-44.4 -0.12,-44.4C5.28,-44.4 9.45,-42.78 12.39,-39.54C15.33,-36.3 16.8,-31.52 16.8,-25.2C16.8,-8 10.26,0.6 -2.82,0.6C-5.071,0.596 -7.318,0.415 -9.54,0.06C-10.481,-0.089 -11.33,-0.594 -11.91,-1.35C-12.521,-2.105 -12.85,-3.049 -12.84,-4.02L-12.84,-5.1C-12.861,-5.898 -12.477,-6.655 -11.82,-7.11C-11.171,-7.604 -10.328,-7.77 -9.54,-7.56C-7.456,-7.064 -5.322,-6.802 -3.18,-6.78C-0.54,-6.632 2.049,-7.564 3.99,-9.36C5.73,-11.08 6.68,-13.6 6.84,-16.92C6.84,-16.922 6.841,-16.925 6.841,-16.928C6.841,-16.957 6.817,-16.981 6.788,-16.981C6.785,-16.981 6.782,-16.98 6.78,-16.98L6.72,-16.98C4.48,-15.26 1.5,-14.4 -2.22,-14.4Z" style="fill:rgb(0,11,77);fill-rule:nonzero;"/>
        </g>
        <g id="パス_552" transform="matrix(1,0,0,1,1086,1420.06)">
            <path d="M-0.12,-37.02C-2.051,-37.125 -3.939,-36.404 -5.31,-35.04C-6.635,-33.541 -7.315,-31.577 -7.2,-29.58C-7.2,-26.82 -6.58,-24.74 -5.34,-23.34C-4.001,-21.898 -2.085,-21.127 -0.12,-21.24C1.846,-21.142 3.754,-21.936 5.07,-23.4C6.435,-25.159 7.107,-27.359 6.96,-29.58C7.052,-31.572 6.338,-33.52 4.98,-34.98C3.643,-36.346 1.79,-37.087 -0.12,-37.02ZM-2.22,-14.4C-6.98,-14.4 -10.63,-15.68 -13.17,-18.24C-15.71,-20.8 -16.98,-24.52 -16.98,-29.4C-16.98,-34 -15.47,-37.65 -12.45,-40.35C-9.43,-43.05 -5.32,-44.4 -0.12,-44.4C5.28,-44.4 9.45,-42.78 12.39,-39.54C15.33,-36.3 16.8,-31.52 16.8,-25.2C16.8,-8 10.26,0.6 -2.82,0.6C-5.071,0.596 -7.318,0.415 -9.54,0.06C-10.481,-0.089 -11.33,-0.594 -11.91,-1.35C-12.521,-2.105 -12.85,-3.049 -12.84,-4.02L-12.84,-5.1C-12.861,-5.898 -12.477,-6.655 -11.82,-7.11C-11.171,-7.604 -10.328,-7.77 -9.54,-7.56C-7.456,-7.064 -5.322,-6.802 -3.18,-6.78C-0.54,-6.632 2.049,-7.564 3.99,-9.36C5.73,-11.08 6.68,-13.6 6.84,-16.92C6.84,-16.922 6.841,-16.925 6.841,-16.928C6.841,-16.957 6.817,-16.981 6.788,-16.981C6.785,-16.981 6.782,-16.98 6.78,-16.98L6.72,-16.98C4.48,-15.26 1.5,-14.4 -2.22,-14.4Z" style="fill:rgb(0,11,77);fill-rule:nonzero;"/>
        </g>
        <g id="パス_549" transform="matrix(1,0,0,1,716,1488)">
            <path d="M-48.672,-45.448C-49.52,-44.699 -50.759,-44.573 -51.74,-45.136C-52.773,-45.625 -53.412,-46.695 -53.352,-47.836L-53.352,-55.428C-53.464,-59.157 -51.656,-62.694 -48.568,-64.788L-38.068,-72.488C-34.967,-74.77 -31.202,-75.976 -27.352,-75.92L-20.8,-75.92C-19.229,-75.93 -17.723,-75.29 -16.64,-74.152C-15.502,-73.069 -14.862,-71.563 -14.872,-69.992L-14.872,-5.928C-14.862,-4.357 -15.502,-2.851 -16.64,-1.768C-17.723,-0.63 -19.229,0.01 -20.8,0L-27.352,0C-28.923,0.01 -30.429,-0.63 -31.512,-1.768C-32.65,-2.851 -33.29,-4.357 -33.28,-5.928L-33.28,-56.472L-33.488,-56.472L-48.672,-45.448ZM12.688,-28.6L12.688,-28.5C12.688,-28.497 12.688,-28.494 12.688,-28.492C12.688,-28.441 12.729,-28.4 12.78,-28.4C12.782,-28.4 12.785,-28.4 12.788,-28.4L29.948,-28.4C30.572,-28.4 30.884,-28.677 30.884,-29.232L30.884,-54.392C30.884,-54.395 30.884,-54.398 30.884,-54.4C30.884,-54.451 30.843,-54.492 30.792,-54.492C30.79,-54.492 30.787,-54.492 30.784,-54.492C30.645,-54.492 30.576,-54.459 30.576,-54.392L12.688,-28.6ZM2.912,-14.56C1.354,-14.543 -0.141,-15.185 -1.2,-16.328C-2.31,-17.425 -2.93,-18.927 -2.916,-20.488L-2.916,-22.464C-2.928,-26.307 -1.725,-30.057 0.52,-33.176L27.456,-71.136C29.517,-74.206 33.015,-76.014 36.712,-75.92L41.912,-75.92C43.469,-75.936 44.962,-75.294 46.02,-74.152C47.13,-73.055 47.75,-71.553 47.736,-69.992L47.736,-29.224C47.736,-28.669 48.048,-28.392 48.672,-28.392L52.832,-28.392C54.403,-28.402 55.909,-27.762 56.992,-26.624C58.13,-25.541 58.77,-24.035 58.76,-22.464L58.76,-20.488C58.77,-18.917 58.13,-17.411 56.992,-16.328C55.909,-15.19 54.403,-14.55 52.832,-14.56L48.672,-14.56C48.633,-14.566 48.594,-14.568 48.555,-14.568C48.101,-14.568 47.728,-14.195 47.728,-13.741C47.728,-13.702 47.73,-13.663 47.736,-13.624L47.736,-5.924C47.75,-4.363 47.13,-2.861 46.02,-1.764C44.961,-0.624 43.468,0.017 41.912,0L36.712,0C35.154,0.017 33.659,-0.625 32.6,-1.768C31.49,-2.865 30.87,-4.367 30.884,-5.928L30.884,-13.628C30.89,-13.667 30.892,-13.706 30.892,-13.745C30.892,-14.199 30.519,-14.572 30.065,-14.572C30.026,-14.572 29.987,-14.57 29.948,-14.564L2.912,-14.56Z" style="fill:rgb(0,11,77);fill-rule:nonzero;"/>
        </g>
        <g id="パス_550" transform="matrix(1,0,0,1,1221.5,1488)">
            <path d="M-48.672,-45.448C-49.52,-44.699 -50.759,-44.573 -51.74,-45.136C-52.773,-45.625 -53.412,-46.695 -53.352,-47.836L-53.352,-55.428C-53.464,-59.157 -51.656,-62.694 -48.568,-64.788L-38.068,-72.488C-34.967,-74.77 -31.202,-75.976 -27.352,-75.92L-20.8,-75.92C-19.229,-75.93 -17.723,-75.29 -16.64,-74.152C-15.502,-73.069 -14.862,-71.563 -14.872,-69.992L-14.872,-5.928C-14.862,-4.357 -15.502,-2.851 -16.64,-1.768C-17.723,-0.63 -19.229,0.01 -20.8,0L-27.352,0C-28.923,0.01 -30.429,-0.63 -31.512,-1.768C-32.65,-2.851 -33.29,-4.357 -33.28,-5.928L-33.28,-56.472L-33.488,-56.472L-48.672,-45.448ZM29.848,-39.1C26.489,-39.258 23.221,-37.95 20.9,-35.516C18.681,-33.124 17.572,-29.848 17.572,-25.688C17.572,-21.32 18.699,-17.905 20.952,-15.444C23.231,-12.972 26.484,-11.621 29.844,-11.752C33.727,-11.752 36.743,-12.948 38.892,-15.34C41.041,-17.732 42.117,-21.181 42.12,-25.688C42.12,-29.987 41.028,-33.297 38.844,-35.62C36.66,-37.943 33.661,-39.103 29.848,-39.1ZM29.848,1.044C20.488,1.044 13.26,-1.816 8.164,-7.536C3.068,-13.256 0.52,-21.837 0.52,-33.28C0.52,-47.84 3.467,-58.76 9.36,-66.04C15.253,-73.32 23.643,-76.96 34.528,-76.96C38.081,-76.981 41.63,-76.702 45.136,-76.128C46.779,-75.863 48.254,-74.965 49.244,-73.628C50.299,-72.298 50.868,-70.646 50.856,-68.948L50.856,-67.076C50.904,-65.716 50.256,-64.422 49.14,-63.644C48.021,-62.817 46.582,-62.548 45.24,-62.916C41.934,-63.703 38.55,-64.122 35.152,-64.164C30.766,-64.343 26.494,-62.705 23.352,-59.64C20.336,-56.624 18.481,-52.273 17.788,-46.588C17.788,-46.585 17.788,-46.582 17.788,-46.58C17.788,-46.529 17.829,-46.488 17.88,-46.488C17.882,-46.488 17.885,-46.488 17.888,-46.488L17.988,-46.488C21.871,-49.469 27.037,-50.96 33.488,-50.96C41.669,-50.96 47.979,-48.811 52.416,-44.512C56.853,-40.213 59.072,-34.043 59.072,-26C59.072,-17.541 56.472,-10.92 51.272,-6.136C46.072,-1.352 38.931,1.04 29.848,1.04L29.848,1.044Z" style="fill:rgb(0,11,77);fill-rule:nonzero;"/>
        </g>
        <g id="パス_553" transform="matrix(1,0,0,1,470.5,1343)">
            <path d="M357.89,90.574C357.894,91.223 357.629,91.846 357.159,92.294C356.711,92.764 356.088,93.029 355.439,93.025L353.461,93.025C352.812,93.029 352.189,92.764 351.741,92.294C351.271,91.846 351.006,91.223 351.01,90.574L351.01,81.8C351.01,81.542 350.895,81.413 350.666,81.413L345.377,81.413C345.361,81.411 345.345,81.41 345.329,81.41C345.141,81.41 344.987,81.564 344.987,81.752C344.987,81.768 344.988,81.784 344.99,81.8L344.99,89.712C344.994,90.361 344.729,90.984 344.259,91.432C343.811,91.902 343.188,92.167 342.539,92.163L340.991,92.163C340.342,92.167 339.719,91.902 339.271,91.432C338.801,90.984 338.536,90.361 338.54,89.712L338.54,81.8C338.542,81.784 338.543,81.768 338.543,81.752C338.543,81.564 338.389,81.41 338.201,81.41C338.185,81.41 338.169,81.411 338.153,81.413L328.953,81.413C328.304,81.417 327.681,81.152 327.233,80.682C326.762,80.235 326.497,79.613 326.5,78.964L326.5,75.264C326.496,74.615 326.761,73.992 327.231,73.544C327.679,73.074 328.302,72.809 328.951,72.813L355.439,72.813C356.088,72.809 356.711,73.074 357.159,73.544C357.629,73.992 357.894,74.615 357.89,75.264L357.89,90.574Z" style="fill:rgb(0,11,77);fill-rule:nonzero;"/>
        </g>
        <g id="パス_5531" serif:id="パス_553" transform="matrix(1,0,0,1,470.5,1342)">
            <path d="M335.1,122.222L328.779,124.5C328.255,124.707 327.658,124.626 327.209,124.285C326.748,123.963 326.481,123.429 326.5,122.867L326.5,118.954C326.494,118.229 326.72,117.521 327.145,116.933C327.549,116.352 328.142,115.928 328.822,115.733L334.67,113.837C335.48,113.635 336.222,113.22 336.82,112.637C337.269,112.095 337.5,111.403 337.465,110.7L337.465,109.15C337.467,109.134 337.468,109.118 337.468,109.102C337.468,108.914 337.314,108.76 337.126,108.76C337.11,108.76 337.094,108.761 337.078,108.763L328.951,108.763C328.302,108.767 327.679,108.502 327.231,108.032C326.761,107.584 326.496,106.961 326.5,106.312L326.5,102.829C326.496,102.18 326.761,101.557 327.231,101.109C327.679,100.639 328.302,100.374 328.951,100.378L355.224,100.378C355.894,100.371 356.544,100.609 357.052,101.045C357.569,101.464 357.889,102.081 357.933,102.745C358.191,105.554 358.32,108.493 358.32,111.56C358.32,120.16 355.095,124.46 348.645,124.46C346.834,124.457 345.071,123.875 343.614,122.8C342.093,121.734 340.936,120.226 340.3,118.481L340.3,118.476C340.3,118.455 340.283,118.438 340.262,118.438L340.257,118.438C340.2,118.438 340.171,118.452 340.171,118.481C339.709,119.311 339.08,120.036 338.322,120.609C337.329,121.295 336.244,121.838 335.1,122.222ZM343.7,111.128C343.631,112.377 344.022,113.61 344.8,114.59C345.551,115.445 346.652,115.912 347.789,115.859C350.512,115.859 351.874,114.282 351.874,111.129C351.878,110.467 351.835,109.806 351.745,109.151C351.716,108.918 351.506,108.746 351.272,108.764L344.091,108.764C344.075,108.762 344.059,108.761 344.043,108.761C343.855,108.761 343.701,108.915 343.701,109.103C343.701,109.119 343.702,109.135 343.704,109.151L343.7,111.128Z" style="fill:rgb(0,11,77);"/>
        </g>
        <g id="パス_5532" serif:id="パス_553" transform="matrix(1,0,0,1,470.5,1343)">
            <path d="M357.89,138.3C357.894,138.949 357.629,139.572 357.159,140.02C356.711,140.49 356.088,140.755 355.439,140.751L328.951,140.751C328.302,140.755 327.679,140.49 327.231,140.02C326.761,139.572 326.496,138.949 326.5,138.3L326.5,133.746C326.496,133.097 326.761,132.474 327.231,132.026C327.679,131.556 328.302,131.291 328.951,131.295L355.439,131.295C356.088,131.291 356.711,131.556 357.159,132.026C357.629,132.474 357.894,133.097 357.89,133.746L357.89,138.3Z" style="fill:rgb(0,11,77);fill-rule:nonzero;"/>
        </g>
        <g id="パス_554" transform="matrix(-0,1,-1,-0,1298.5,1449)">
            <path d="M-28.741,-18.86C-24.914,-17.739 -22.249,-16.4 -20.746,-14.842C-19.193,-13.15 -18.38,-10.904 -18.491,-8.61C-18.491,-2.597 -22.386,0.41 -30.176,0.41C-32.489,0.442 -34.787,0.024 -36.941,-0.82C-37.577,-1.071 -38.108,-1.535 -38.441,-2.132C-38.808,-2.753 -38.999,-3.461 -38.994,-4.182L-38.994,-6.273C-39.018,-6.75 -38.761,-7.199 -38.338,-7.421C-37.924,-7.666 -37.413,-7.682 -36.985,-7.462C-34.99,-6.489 -32.804,-5.971 -30.585,-5.945C-28.125,-5.945 -26.895,-6.765 -26.895,-8.405C-26.852,-9.044 -27.058,-9.676 -27.469,-10.168C-28.068,-10.698 -28.785,-11.078 -29.56,-11.275C-33.195,-12.396 -35.812,-13.796 -37.411,-15.475C-39.011,-17.156 -39.875,-19.408 -39.811,-21.728C-39.918,-24.173 -38.841,-26.525 -36.92,-28.042C-34.993,-29.575 -32.199,-30.342 -28.536,-30.342C-26.171,-30.375 -23.812,-30.085 -21.525,-29.481C-20.871,-29.291 -20.304,-28.877 -19.925,-28.312C-19.521,-27.743 -19.306,-27.062 -19.31,-26.364L-19.31,-24.355C-19.295,-23.836 -19.552,-23.346 -19.987,-23.063C-20.422,-22.75 -20.989,-22.68 -21.487,-22.879C-23.625,-23.62 -25.866,-24.022 -28.129,-24.068C-30.37,-24.068 -31.491,-23.289 -31.491,-21.731C-31.489,-20.364 -30.572,-19.407 -28.741,-18.86ZM7.093,-29.93C7.713,-29.933 8.307,-29.68 8.733,-29.23C9.183,-28.804 9.436,-28.21 9.433,-27.59L9.433,-11.07C9.433,-7.243 8.422,-4.373 6.399,-2.46C4.376,-0.547 1.423,0.41 -2.46,0.41C-6.341,0.41 -9.293,-0.547 -11.316,-2.46C-13.339,-4.373 -14.35,-7.243 -14.35,-11.07L-14.35,-27.593C-14.353,-28.213 -14.1,-28.807 -13.65,-29.233C-13.224,-29.683 -12.63,-29.936 -12.01,-29.933L-8.4,-29.933C-7.78,-29.936 -7.186,-29.683 -6.76,-29.233C-6.31,-28.807 -6.057,-28.213 -6.06,-27.593L-6.06,-10.455C-6.176,-9.275 -5.871,-8.09 -5.199,-7.113C-4.439,-6.401 -3.407,-6.049 -2.37,-6.149C-1.335,-6.052 -0.307,-6.403 0.451,-7.114C1.123,-8.091 1.428,-9.276 1.312,-10.456L1.312,-27.593C1.309,-28.213 1.562,-28.807 2.012,-29.233C2.438,-29.683 3.032,-29.936 3.652,-29.933L7.093,-29.93ZM36.449,-29.93C37.069,-29.933 37.663,-29.68 38.089,-29.23C38.539,-28.804 38.792,-28.21 38.789,-27.59L38.789,-2.337C38.792,-1.717 38.539,-1.123 38.089,-0.697C37.663,-0.247 37.069,0.006 36.449,0.003L33.333,0.003C31.89,0.072 30.547,-0.763 29.971,-2.088L22.878,-16.359C22.878,-16.361 22.878,-16.363 22.878,-16.364C22.878,-16.384 22.862,-16.4 22.842,-16.4C22.841,-16.4 22.839,-16.4 22.837,-16.4C22.835,-16.4 22.833,-16.4 22.832,-16.4C22.812,-16.4 22.796,-16.384 22.796,-16.364C22.796,-16.363 22.796,-16.361 22.796,-16.359L22.796,-2.337C22.799,-1.719 22.547,-1.126 22.1,-0.7C21.674,-0.25 21.08,0.003 20.46,0L17.343,0C16.722,0.004 16.127,-0.25 15.7,-0.7C15.25,-1.126 14.997,-1.72 15,-2.34L15,-27.593C14.997,-28.213 15.25,-28.807 15.7,-29.233C16.126,-29.683 16.72,-29.936 17.34,-29.933L20.456,-29.933C21.899,-30.002 23.242,-29.167 23.818,-27.842L30.911,-13.574C30.911,-13.572 30.911,-13.57 30.911,-13.569C30.911,-13.549 30.927,-13.533 30.947,-13.533C30.948,-13.533 30.95,-13.533 30.952,-13.533C30.956,-13.532 30.96,-13.531 30.964,-13.531C30.984,-13.531 31,-13.547 31,-13.567C31,-13.568 31,-13.57 31,-13.571L31,-27.593C30.997,-28.213 31.25,-28.807 31.7,-29.233C32.126,-29.683 32.72,-29.936 33.34,-29.933L36.449,-29.93Z" style="fill:rgb(0,11,77);fill-rule:nonzero;"/>
        </g>
        <g id="パス_555" transform="matrix(1,0,0,1,600.5,1369.06)">
            <path d="M67,0L0,88.44" style="fill:none;fill-rule:nonzero;stroke:rgb(0,11,77);stroke-width:6px;"/>
        </g>
        <g id="パス_556" transform="matrix(1,0,0,1,1106,1369.06)">
            <path d="M67,0L0,88.44" style="fill:none;fill-rule:nonzero;stroke:rgb(0,11,77);stroke-width:6px;"/>
        </g>
        <g id="パス_557" transform="matrix(1,0,0,1,-2139.196,1651.269)">
            <path d="M3127.337,-203.27L3057,-203.27L3057,-208.227L3115.89,-208.227L3115.89,-221L3141.39,-203.269L3127.337,-203.27Z" style="fill:rgb(0,11,77);fill-rule:nonzero;"/>
        </g>
        <g id="パス_559" transform="matrix(1,0,0,1,472.5,1345)">
            <path d="M0,0L975,0" style="fill:none;fill-rule:nonzero;stroke:rgb(0,11,77);stroke-width:4px;"/>
        </g>
        <g id="パス_558" transform="matrix(1,0,0,1,472.5,1512.06)">
            <path d="M0,0L975,0" style="fill:none;fill-rule:nonzero;stroke:rgb(0,11,77);stroke-width:4px;"/>
        </g>
    </g>
</svg>
